X: 1
T: Haste to the Wedding
C: Trad
R: Jig
M: 6/8
L: 1/8
K: Dmaj
Z: ABC transcription by Verge Roller
r: 32
|: FG | "D" AFA Agf | "A" ede "D" fdB | "D" ABA AGF | "A" GFG EFG |
"D" AFA Agf | "A" ede "D" fdB | "D" ABA "A" faf | "D" ded d :|
|: fg  | "D" afa afa | "G" bgb bgb | "D" afa agf | "Em" gfg "A" efg |
"D" .a3 "F#m" .f3 | "A" ede "D" fdB | "D" AFA "A" faf | "D" ded d :|
